IMG/SVG/cake-gray.svg

<svg id="Layer_1" data-name="Layer 1" xmlns="http://www.w3.org/2000/svg" viewBox="0 0 284.64 341.15"><defs><style>.cls-1{fill:#404040;}</style></defs><path class="cls-1" d="M35.8,107.59H62c.65,9.46,1.29,18.88,2,29.65h61.07c.46-9,.92-18,1.45-28.47h29.84c.5,8.71,1,18.15,1.65,28.67h61.63v-28.9h31.86c-3.7,20.53,3.76,35.17,20.34,49,16.41,13.66,13.82,36.68,9.38,55.43-5,21.24-36.62,25.46-53.67,8.38-10.48-10.48-19.88-22-31.14-34.66-9.35,10.62-17.39,19.86-25.54,29-20,22.49-38.9,22.24-59.07-.69-7.72-8.78-15.49-17.52-24.83-28.08-9.79,10.91-18.79,20.9-27.76,30.91C48.93,229.34,36.94,235.85,21.06,230,4.55,223.87-.26,211.86,0,194.66c.34-21.25,7.53-36.57,24-50.74C31.76,137.27,31.66,121.51,35.8,107.59Z"/><path class="cls-1" d="M1.82,341.15V256.49c34.19,15.57,61.75,5.92,84.42-20.31,48.29,37.43,70.69,37.46,111.08-.81,22.81,26.3,50.75,37,85.5,21.31v84.47Z"/><path class="cls-1" d="M50.86.21c8.54,16.64,17.71,33,25.43,50,6.22,13.7,1.2,25.75-10.12,34.56-11.51,9-24.38,9.33-36.24.8-12.37-8.89-17.66-21.38-11-35.89C26.66,32.79,35.86,16.55,44.43,0Z"/><path class="cls-1" d="M145,.22c8.54,16.65,17.71,33,25.43,50C176.66,64,171.61,76,160.27,84.81c-11.52,8.94-24.39,9.29-36.24.74-12.36-8.91-17.61-21.41-11-35.91C120.83,32.75,130,16.52,138.6,0Z"/><path class="cls-1" d="M239.18.24c8.54,16.66,17.72,33,25.42,50.06,6.2,13.7,1.13,25.75-10.21,34.53-11.53,8.92-24.4,9.26-36.25.71-12.34-8.92-17.58-21.43-10.92-35.93,7.76-16.88,17-33.1,25.53-49.61Z"/></svg>

<?xml version="1.0" encoding="UTF-8" standalone="no"?>
<!DOCTYPE svg PUBLIC "-//W3C//DTD SVG 1.1//EN" "http://www.w3.org/Graphics/SVG/1.1/DTD/svg11.dtd">
<svg width="100%" height="100%" viewBox="0 0 285 342" version="1.1" xmlns="http://www.w3.org/2000/svg" xmlns:xlink="http://www.w3.org/1999/xlink" xml:space="preserve" xmlns:serif="http://www.serif.com/" style="fill-rule:evenodd;clip-rule:evenodd;stroke-linejoin:round;stroke-miterlimit:2;">
    <path d="M35.8,107.59L62,107.59C62.65,117.05 63.29,126.47 64,137.24L125.07,137.24C125.53,128.24 125.99,119.24 126.52,108.77L156.36,108.77C156.86,117.48 157.36,126.92 158.01,137.44L219.64,137.44L219.64,108.54L251.5,108.54C247.8,129.07 255.26,143.71 271.84,157.54C288.25,171.2 285.66,194.22 281.22,212.97C276.22,234.21 244.6,238.43 227.55,221.35C217.07,210.87 207.67,199.35 196.41,186.69C187.06,197.31 179.02,206.55 170.87,215.69C150.87,238.18 131.97,237.93 111.8,215C104.08,206.22 96.31,197.48 86.97,186.92C77.18,197.83 68.18,207.82 59.21,217.83C48.93,229.34 36.94,235.85 21.06,230C4.55,223.87 -0.26,211.86 0,194.66C0.34,173.41 7.53,158.09 24,143.92C31.76,137.27 31.66,121.51 35.8,107.59Z" style="fill:rgb(64,64,64);fill-rule:nonzero;stroke:rgb(64,64,64);stroke-width:1px;"/>
    <path d="M1.82,341.15L1.82,256.49C36.01,272.06 63.57,262.41 86.24,236.18C134.53,273.61 156.93,273.64 197.32,235.37C220.13,261.67 248.07,272.37 282.82,256.68L282.82,341.15L1.82,341.15Z" style="fill:rgb(64,64,64);fill-rule:nonzero;stroke:rgb(64,64,64);stroke-width:1px;"/>
    <path d="M50.86,0.21C59.4,16.85 68.57,33.21 76.29,50.21C82.51,63.91 77.49,75.96 66.17,84.77C54.66,93.77 41.79,94.1 29.93,85.57C17.56,76.68 12.27,64.19 18.93,49.68C26.66,32.79 35.86,16.55 44.43,0L50.86,0.21Z" style="fill:rgb(64,64,64);fill-rule:nonzero;stroke:rgb(64,64,64);stroke-width:1px;"/>
    <path d="M145,0.22C153.54,16.87 162.71,33.22 170.43,50.22C176.66,64 171.61,76 160.27,84.81C148.75,93.75 135.88,94.1 124.03,85.55C111.67,76.64 106.42,64.14 113.03,49.64C120.83,32.75 130,16.52 138.6,0L145,0.22Z" style="fill:rgb(64,64,64);fill-rule:nonzero;stroke:rgb(64,64,64);stroke-width:1px;"/>
    <path d="M239.18,0.24C247.72,16.9 256.9,33.24 264.6,50.3C270.8,64 265.73,76.05 254.39,84.83C242.86,93.75 229.99,94.09 218.14,85.54C205.8,76.62 200.56,64.11 207.22,49.61C214.98,32.73 224.22,16.51 232.75,0L239.18,0.24Z" style="fill:rgb(64,64,64);fill-rule:nonzero;stroke:rgb(64,64,64);stroke-width:1px;"/>
</svg>
